svg/fluentui-system-icons/ic_fluent_mountain_location_top_20_filled.svg

<svg width="20" height="20" viewBox="0 0 20 20" fill="none" xmlns="http://www.w3.org/2000/svg">
<path d="M10.9874 5.23842C10.9049 5.36417 10.8225 5.48605 10.7425 5.60187C10.3777 6.1298 9.62228 6.1298 9.25749 5.60187C9.2486 5.589 9.23968 5.57605 9.23073 5.56304C9.15393 5.45131 9.07521 5.33429 8.99651 5.21388C8.49768 4.45059 8 3.551 8 3C8 1.89543 8.89543 1 10 1C11.1046 1 12 1.89543 12 3C12 3.551 11.5023 4.45059 11.0035 5.21388C10.9981 5.22207 10.9928 5.23026 10.9874 5.23842ZM11 3C11 2.44772 10.5523 2 10 2C9.44772 2 9 2.44772 9 3C9 3.55228 9.44772 4 10 4C10.5523 4 11 3.55228 11 3ZM8.43478 6.17033C8.35228 6.05093 8.26629 5.92381 8.17929 5.79129L2.82425 11.4323C2.29504 11.9898 2 12.7291 2 13.4978V15.0001C2 16.1047 2.89543 17.0001 4 17.0001H16C17.1046 17.0001 18 16.1047 18 15.0001V13.4978C18 12.7291 17.705 11.9898 17.1758 11.4323L11.8207 5.79129C11.7337 5.92381 11.6477 6.05093 11.5652 6.17033C11.4555 6.32909 11.3284 6.465 11.1888 6.57807L13.457 8.96739C12.1916 9.04333 11.1591 9.51081 10.2613 9.91729C10.0185 10.0272 9.78565 10.1326 9.56068 10.2246C8.90023 10.4948 8.29736 10.665 7.645 10.6184C7.08847 10.5786 6.45261 10.3774 5.68489 9.87136L8.81123 6.57807C8.67164 6.465 8.54448 6.32908 8.43478 6.17033Z" fill="#212121"/>
</svg>

<svg xmlns="http://www.w3.org/2000/svg" width="20" height="20"><path d="M10.987 5.238c-.082.126-.165.248-.245.364a.894.894 0 0 1-1.511-.039 18.085 18.085 0 0 1-.234-.35C8.497 4.452 8 3.552 8 3a2 2 0 1 1 4 0c0 .551-.498 1.45-.996 2.214l-.017.024ZM11 3a1 1 0 1 0-2 0 1 1 0 0 0 2 0ZM8.435 6.17a19.33 19.33 0 0 1-.256-.379l-5.355 5.641A3 3 0 0 0 2 13.498V15a2 2 0 0 0 2 2h12a2 2 0 0 0 2-2v-1.502a3 3 0 0 0-.824-2.066l-5.355-5.64c-.087.132-.173.259-.256.378-.11.16-.237.295-.376.408l2.268 2.39c-1.265.075-2.298.543-3.196.95-.242.11-.475.215-.7.307-.66.27-1.264.44-1.916.393-.557-.04-1.192-.24-1.96-.747L8.81 6.578a1.948 1.948 0 0 1-.376-.408Z"/></svg>
